X:66
T:The Painful Plough - Rickards
C:Taken down from John Rickards, Lamerton by H.Fl.S.
%%VWML:SBG-1-1-288-0
F:http://www.vwml.org/record/SBG/1/1/288
Z:Original Sibleius Transcription by Martin and Shan Graebe
L:1/4
M:4/4
I:linebreak $
K:F
c/A/ | F F (F/A/) c | (d c) A G | G F D E | F2 z c/A/ | F F (F/A/) c |$ (d c) A G | G F D E | 
F2 z c | d c d e | (f d) c A |$ G F G A | G2 z c | F F F/A/ c | (d c) A G | G F D E | F2 z |] 
T:The Painful Plough - Barretts
T:From Barrett’s “English Folk Songs” 1891. No. 3. A North Country melody.
L:1/4
M:4/4
I:linebreak $
K:Bb
D | G G A A | B A/ G A | B G A A | G2 z D | G G A A |$ B3/2 c/ d d | c B B A | B2 z B | d d c c | 
B2 A A |$ G G A G | D3 D | G G A A | (B3/2 c/) d d | c B B A | G3  |] 



